usr/share/icons/biglinux-icons-material/scalable/mimetypes/text-x-pascal.svg

<svg width="24" height="24" viewBox="0 0 24 24" fill="none" xmlns="http://www.w3.org/2000/svg">
<rect x="1" y="1" width="22" height="22" rx="6.6" fill="url(#paint0_radial_21_2092)"/>
<path d="M8.88145 17V7.42269H12.1175C12.8689 7.42269 13.483 7.55831 13.96 7.82954C14.4402 8.09765 14.7956 8.46086 15.0263 8.91915C15.257 9.37743 15.3723 9.88872 15.3723 10.453C15.3723 11.0173 15.257 11.5301 15.0263 11.9916C14.7987 12.453 14.4464 12.8208 13.9694 13.0952C13.4924 13.3664 12.8813 13.502 12.1362 13.502H9.81673V12.4732H12.0988C12.6132 12.4732 13.0263 12.3844 13.3381 12.2067C13.6498 12.029 13.8759 11.7889 14.0162 11.4865C14.1596 11.181 14.2313 10.8365 14.2313 10.453C14.2313 10.0695 14.1596 9.72661 14.0162 9.4242C13.8759 9.12179 13.6483 8.88485 13.3334 8.71338C13.0185 8.5388 12.6008 8.4515 12.0801 8.4515H10.0412V17H8.88145Z" fill="#E6446D"/>
<path d="M6.68522 12.3688C7.06366 12.3688 7.37044 12.1002 7.37044 11.7688C7.37044 11.4374 7.06366 11.1688 6.68522 11.1688C6.30678 11.1688 6 11.4374 6 11.7688C6 12.1002 6.30678 12.3688 6.68522 12.3688Z" fill="#E6446D"/>
<defs>
<radialGradient id="paint0_radial_21_2092" cx="0" cy="0" r="1" gradientUnits="userSpaceOnUse" gradientTransform="translate(17.5 1) rotate(116.565) scale(24.5967)">
<stop stop-color="#F4F4F4"/>
<stop offset="1" stop-color="#BBBBBB"/>
</radialGradient>
</defs>
</svg>

<svg xmlns="http://www.w3.org/2000/svg" width="24" height="24" fill="none"><rect width="22" height="22" x="1" y="1" fill="url(#a)" rx="6.6"/><path fill="#E6446D" d="M8.881 17V7.423h3.236c.752 0 1.366.135 1.843.407.48.268.836.63 1.066 1.09.231.457.346.969.346 1.533s-.115 1.077-.346 1.539c-.227.461-.58.829-1.057 1.103-.477.271-1.088.407-1.833.407h-2.32v-1.029H12.1c.514 0 .927-.089 1.24-.266a1.59 1.59 0 0 0 .677-.72c.144-.306.215-.65.215-1.034 0-.383-.071-.726-.215-1.029a1.535 1.535 0 0 0-.683-.71c-.315-.175-.732-.263-1.253-.263h-2.039V17h-1.16ZM6.685 12.369c.379 0 .685-.269.685-.6 0-.332-.306-.6-.685-.6-.378 0-.685.268-.685.6 0 .331.307.6.685.6Z"/><defs><radialGradient id="a" cx="0" cy="0" r="1" gradientTransform="rotate(116.565 8.441 5.908) scale(24.5967)" gradientUnits="userSpaceOnUse"><stop stop-color="#F4F4F4"/><stop offset="1" stop-color="#BBB"/></radialGradient></defs></svg>
